img/sprite-social.svg

<svg viewBox="0 0 29 274" xmlns="http://www.w3.org/2000/svg"><path d="M14.114 133.228C6.319 133.228 0 126.909 0 119.114 0 111.319 6.319 105 14.114 105c7.795 0 14.114 6.319 14.114 14.114 0 7.795-6.319 14.114-14.114 14.114Zm4.686-13.792c-.453-.491-1.059-.814-1.813-.974v-.064a2.64 2.64 0 0 0 1.233-1.029c.3-.465.449-.995.449-1.592 0-.516-.109-.971-.325-1.366a2.373 2.373 0 0 0-.982-.945 3.87 3.87 0 0 0-1.301-.428c-.462-.071-1.143-.104-2.04-.104H9.7v12.229h4.895c.85 0 1.547-.076 2.097-.23a4.309 4.309 0 0 0 1.517-.771c.39-.303.698-.681.928-1.14.23-.461.345-.996.345-1.605 0-.83-.227-1.49-.682-1.981Zm-3.285 3.246c-.317.137-.631.21-.936.221-.306.012-.859.017-1.657.017h-.166v-3.062h.567c.546 0 .984.003 1.309.012.325.008.583.047.768.121.306.108.535.268.69.484.154.213.229.508.229.886 0 .294-.064.559-.193.791a1.22 1.22 0 0 1-.611.53Zm-.614-5.105a1.81 1.81 0 0 1-.653.171c-.211.011-.581.016-1.105.016h-.387v-2.587h.213c.547 0 .959.003 1.237.011.277.008.516.056.717.146a.908.908 0 0 1 .474.451c.101.207.152.41.152.608 0 .267-.048.503-.141.707-.092.202-.263.361-.507.477Zm-.787-54.349C6.319 63.228 0 56.909 0 49.114 0 41.319 6.319 35 14.114 35c7.795 0 14.114 6.319 14.114 14.114 0 7.795-6.319 14.114-14.114 14.114Zm7.21-19.634c0-.867-.702-1.569-1.569-1.569H8.667c-.867 0-1.569.702-1.569 1.569l-.001 11.073c0 .867.703 1.569 1.569 1.569h11.089c.867 0 1.569-.702 1.569-1.569V43.594Zm-2.088 2.807h-1.677a.55.55 0 0 1-.55-.55v-1.677a.55.55 0 0 1 .55-.55h1.677a.55.55 0 0 1 .55.55v1.677a.55.55 0 0 1-.55.55Zm-5.003 5.312a2.552 2.552 0 0 1 0-5.106c1.411 0 2.758 1.029 2.758 2.552 0 1.524-1.347 2.554-2.758 2.554Zm0 1.877a4.427 4.427 0 0 0 4.285-5.539c.794.001 1.241-.001 1.241-.001v6.104a.55.55 0 0 1-.55.55H9.257a.55.55 0 0 1-.55-.55V48.05l1.241.001a4.427 4.427 0 0 0 4.285 5.539Zm-.118-25.362C6.32 28.228.001 21.909.001 14.114.001 6.319 6.32 0 14.115 0c7.794 0 14.113 6.319 14.113 14.114 0 7.795-6.319 14.114-14.113 14.114Zm7.777-19.801a6.548 6.548 0 0 1-2.08.795 3.276 3.276 0 0 0-5.583 2.988 9.303 9.303 0 0 1-6.752-3.423 3.277 3.277 0 0 0 1.014 4.374 3.266 3.266 0 0 1-1.484-.41v.041a3.28 3.28 0 0 0 2.627 3.213 3.31 3.31 0 0 1-1.479.055 3.278 3.278 0 0 0 3.06 2.275 6.569 6.569 0 0 1-4.85 1.357 9.27 9.27 0 0 0 5.022 1.472c6.026 0 9.321-4.992 9.321-9.321a8.54 8.54 0 0 0-.01-.424 6.654 6.654 0 0 0 1.635-1.695 6.558 6.558 0 0 1-1.881.515 3.286 3.286 0 0 0 1.44-1.812Zm-7.777 89.801C6.32 98.228.001 91.909.001 84.114.001 76.319 6.32 70 14.115 70c7.795 0 14.114 6.319 14.114 14.114 0 7.795-6.319 14.114-14.114 14.114Zm3.516-22.769H15.12c-2.963 0-3.672 1.39-3.672 3.905v1.978H9.749v2.778h1.699v8.357h3.363V84.12h2.466l.257-2.778h-2.723l.004-1.67c0-.804.076-1.129 1.23-1.129h1.586v-3.084Z" class="cls-1" style="fill:#484846;fill-rule:evenodd"/><path d="M14.115 273.228c-7.795 0-14.114-6.319-14.114-14.114C.001 251.319 6.32 245 14.115 245c7.795 0 14.114 6.319 14.114 14.114 0 7.795-6.319 14.114-14.114 14.114Zm4.686-13.792c-.453-.491-1.059-.814-1.813-.974v-.064a2.64 2.64 0 0 0 1.233-1.029c.3-.465.449-.995.449-1.592 0-.516-.109-.971-.325-1.366a2.373 2.373 0 0 0-.982-.945 3.87 3.87 0 0 0-1.301-.428c-.462-.071-1.143-.104-2.04-.104H9.701v12.229h4.895c.85 0 1.547-.076 2.097-.23a4.309 4.309 0 0 0 1.517-.771c.39-.303.698-.681.928-1.14.23-.461.345-.996.345-1.605 0-.83-.227-1.49-.682-1.981Zm-3.285 3.246c-.317.137-.631.21-.936.221-.306.012-.859.017-1.657.017h-.166v-3.062h.567c.546 0 .984.003 1.309.012.325.008.583.047.768.121.306.108.535.268.69.484.154.213.229.508.229.886 0 .294-.064.559-.193.791a1.22 1.22 0 0 1-.611.53Zm-.614-5.105a1.81 1.81 0 0 1-.653.171c-.211.011-.581.016-1.105.016h-.387v-2.587h.213c.547 0 .959.003 1.237.011.277.008.516.056.717.146a.908.908 0 0 1 .474.451c.101.207.152.41.152.608 0 .267-.048.503-.141.707-.092.202-.263.361-.507.477Zm-.787-54.349c-7.795 0-14.114-6.319-14.114-14.114C.001 181.319 6.32 175 14.115 175c7.795 0 14.114 6.319 14.114 14.114 0 7.795-6.319 14.114-14.114 14.114Zm7.21-19.634c0-.867-.702-1.569-1.569-1.569H8.668c-.867 0-1.569.702-1.569 1.569l-.001 11.073c0 .867.703 1.569 1.569 1.569h11.089c.867 0 1.569-.702 1.569-1.569v-11.073Zm-2.088 2.807H17.56a.55.55 0 0 1-.55-.55v-1.677a.55.55 0 0 1 .55-.55h1.677a.55.55 0 0 1 .55.55v1.677a.55.55 0 0 1-.55.55Zm-5.003 5.312a2.552 2.552 0 0 1 0-5.106c1.411 0 2.758 1.029 2.758 2.552 0 1.524-1.347 2.554-2.758 2.554Zm0 1.877a4.427 4.427 0 0 0 4.285-5.539c.794.001 1.241-.001 1.241-.001v6.104a.55.55 0 0 1-.55.55H9.258a.55.55 0 0 1-.55-.55v-6.104l1.241.001a4.427 4.427 0 0 0 4.285 5.539Zm-.118-25.362c-7.795 0-14.114-6.319-14.114-14.114C.002 146.319 6.321 140 14.116 140c7.794 0 14.113 6.319 14.113 14.114 0 7.795-6.319 14.114-14.113 14.114Zm7.777-19.801a6.548 6.548 0 0 1-2.08.795 3.276 3.276 0 0 0-5.583 2.988 9.303 9.303 0 0 1-6.752-3.423 3.277 3.277 0 0 0 1.014 4.374 3.266 3.266 0 0 1-1.484-.41v.041a3.28 3.28 0 0 0 2.627 3.213 3.31 3.31 0 0 1-1.479.055 3.278 3.278 0 0 0 3.06 2.275 6.569 6.569 0 0 1-4.85 1.357 9.27 9.27 0 0 0 5.022 1.472c6.026 0 9.321-4.992 9.321-9.321a8.54 8.54 0 0 0-.01-.424 6.654 6.654 0 0 0 1.635-1.695 6.558 6.558 0 0 1-1.881.515 3.286 3.286 0 0 0 1.44-1.812Zm-7.777 89.801c-7.795 0-14.114-6.319-14.114-14.114C.002 216.319 6.321 210 14.116 210c7.795 0 14.114 6.319 14.114 14.114 0 7.795-6.319 14.114-14.114 14.114Zm3.516-22.769h-2.511c-2.963 0-3.672 1.39-3.672 3.905v1.978H9.75v2.778h1.699v8.357h3.363v-8.357h2.466l.257-2.778h-2.723l.004-1.67c0-.804.076-1.129 1.23-1.129h1.586v-3.084Z" class="cls-1" style="fill-rule:evenodd;fill:#ff5635"/></svg>

<?xml version="1.0" encoding="utf-8"?>
<svg viewBox="0 0 29 274" xmlns="http://www.w3.org/2000/svg">
  <path d="M 14.114 133.228 C 6.319 133.228 0 126.909 0 119.114 C 0 111.319 6.319 105 14.114 105 C 21.909 105 28.228 111.319 28.228 119.114 C 28.228 126.909 21.909 133.228 14.114 133.228 Z M 18.8 119.436 C 18.347 118.945 17.741 118.622 16.987 118.462 L 16.987 118.398 C 17.511 118.177 17.923 117.835 18.22 117.369 C 18.52 116.904 18.669 116.374 18.669 115.777 C 18.669 115.261 18.56 114.806 18.344 114.411 C 18.128 114.019 17.8 113.702 17.362 113.466 C 16.958 113.247 16.524 113.105 16.061 113.038 C 15.599 112.967 14.918 112.934 14.021 112.934 L 9.7 112.934 L 9.7 125.163 L 14.595 125.163 C 15.445 125.163 16.142 125.087 16.692 124.933 C 17.245 124.778 17.75 124.523 18.209 124.162 C 18.599 123.859 18.907 123.481 19.137 123.022 C 19.367 122.561 19.482 122.026 19.482 121.417 C 19.482 120.587 19.255 119.927 18.8 119.436 Z M 15.515 122.682 C 15.198 122.819 14.884 122.892 14.579 122.903 C 14.273 122.915 13.72 122.92 12.922 122.92 L 12.756 122.92 L 12.756 119.858 L 13.323 119.858 C 13.869 119.858 14.307 119.861 14.632 119.87 C 14.957 119.878 15.215 119.917 15.4 119.991 C 15.706 120.099 15.935 120.259 16.09 120.475 C 16.244 120.688 16.319 120.983 16.319 121.361 C 16.319 121.655 16.255 121.92 16.126 122.152 C 15.997 122.385 15.795 122.561 15.515 122.682 Z M 14.901 117.577 C 14.677 117.68 14.458 117.736 14.248 117.748 C 14.037 117.759 13.667 117.764 13.143 117.764 L 12.756 117.764 L 12.756 115.177 L 12.969 115.177 C 13.516 115.177 13.928 115.18 14.206 115.188 C 14.483 115.196 14.722 115.244 14.923 115.334 C 15.139 115.426 15.296 115.578 15.397 115.785 C 15.498 115.992 15.549 116.195 15.549 116.393 C 15.549 116.66 15.501 116.896 15.408 117.1 C 15.316 117.302 15.145 117.461 14.901 117.577 Z" class="cls-1" style="fill: rgb(72, 72, 70); fill-rule: evenodd;"/>
  <path d="M 14.114 63.228 C 6.319 63.228 0 56.909 0 49.114 C 0 41.319 6.319 35 14.114 35 C 21.909 35 28.228 41.319 28.228 49.114 C 28.228 56.909 21.909 63.228 14.114 63.228 Z M 21.324 43.594 C 21.324 42.727 20.622 42.025 19.755 42.025 L 8.667 42.025 C 7.8 42.025 7.098 42.727 7.098 43.594 L 7.097 54.667 C 7.097 55.534 7.8 56.236 8.666 56.236 L 19.755 56.236 C 20.622 56.236 21.324 55.534 21.324 54.667 L 21.324 43.594 Z M 19.236 46.401 L 17.559 46.401 C 17.256 46.401 17.009 46.155 17.009 45.851 L 17.009 44.174 C 17.009 43.87 17.256 43.624 17.559 43.624 L 19.236 43.624 C 19.54 43.624 19.786 43.87 19.786 44.174 L 19.786 45.851 C 19.786 46.155 19.54 46.401 19.236 46.401 Z M 14.233 51.713 C 12.823 51.713 11.681 50.57 11.681 49.16 C 11.681 47.749 12.823 46.607 14.233 46.607 C 15.644 46.607 16.991 47.636 16.991 49.159 C 16.991 50.683 15.644 51.713 14.233 51.713 Z M 14.233 53.59 C 16.677 53.59 18.659 51.608 18.659 49.164 C 18.659 48.78 18.61 48.406 18.518 48.051 C 19.312 48.052 19.759 48.05 19.759 48.05 L 19.759 54.154 C 19.759 54.457 19.513 54.704 19.209 54.704 L 9.257 54.704 C 8.953 54.704 8.707 54.457 8.707 54.154 L 8.707 48.05 C 8.707 48.05 8.958 48.051 9.948 48.051 C 9.855 48.406 9.806 48.78 9.806 49.164 C 9.806 51.608 11.788 53.59 14.233 53.59 Z" class="cls-1" style="fill: rgb(72, 72, 70); fill-rule: evenodd;"/>
  <path d="M 14.115 28.228 C 6.32 28.228 0.001 21.909 0.001 14.114 C 0.001 6.319 6.32 0 14.115 0 C 21.909 0 28.228 6.319 28.228 14.114 C 28.228 21.909 21.909 28.228 14.115 28.228 Z M 21.892 8.427 C 21.259 8.803 20.558 9.075 19.812 9.222 C 19.214 8.585 18.363 8.187 17.42 8.187 C 15.611 8.187 14.144 9.654 14.144 11.463 C 14.144 11.72 14.173 11.97 14.229 12.21 C 11.507 12.073 9.093 10.769 7.477 8.787 C 7.195 9.271 7.033 9.834 7.033 10.434 C 7.033 11.57 7.612 12.573 8.491 13.161 C 7.954 13.144 7.448 12.996 7.007 12.751 C 7.007 12.765 7.007 12.778 7.007 12.792 C 7.007 14.379 8.136 15.703 9.634 16.005 C 9.36 16.079 9.07 16.119 8.771 16.119 C 8.56 16.119 8.355 16.099 8.155 16.06 C 8.572 17.362 9.782 18.309 11.215 18.335 C 10.094 19.214 8.682 19.738 7.147 19.738 C 6.882 19.738 6.621 19.723 6.365 19.692 C 7.815 20.622 9.537 21.164 11.387 21.164 C 17.413 21.164 20.708 16.172 20.708 11.843 C 20.708 11.701 20.705 11.56 20.698 11.419 C 21.339 10.957 21.894 10.38 22.333 9.724 C 21.746 9.984 21.114 10.16 20.452 10.239 C 21.128 9.834 21.647 9.192 21.892 8.427 Z" class="cls-1" style="fill: rgb(72, 72, 70); fill-rule: evenodd;"/>
  <path d="M 14.115 98.228 C 6.32 98.228 0.001 91.909 0.001 84.114 C 0.001 76.319 6.32 70 14.115 70 C 21.91 70 28.229 76.319 28.229 84.114 C 28.229 91.909 21.91 98.228 14.115 98.228 Z M 17.631 75.459 L 15.12 75.459 C 12.157 75.459 11.448 76.849 11.448 79.364 L 11.448 81.342 L 9.749 81.342 L 9.749 84.12 L 11.448 84.12 L 11.448 92.477 L 14.811 92.477 L 14.811 84.12 L 17.277 84.12 L 17.534 81.342 L 14.811 81.342 L 14.815 79.672 C 14.815 78.868 14.891 78.543 16.045 78.543 L 17.631 78.543 L 17.631 75.459 Z" class="cls-1" style="fill: rgb(72, 72, 70); fill-rule: evenodd;"/>
  <path d="M 14.115 273.228 C 6.32 273.228 0.001 266.909 0.001 259.114 C 0.001 251.319 6.32 245 14.115 245 C 21.91 245 28.229 251.319 28.229 259.114 C 28.229 266.909 21.91 273.228 14.115 273.228 Z M 18.801 259.436 C 18.348 258.945 17.742 258.622 16.988 258.462 L 16.988 258.398 C 17.512 258.177 17.924 257.835 18.221 257.369 C 18.521 256.904 18.67 256.374 18.67 255.777 C 18.67 255.261 18.561 254.806 18.345 254.411 C 18.129 254.019 17.801 253.702 17.363 253.466 C 16.959 253.247 16.525 253.105 16.062 253.038 C 15.6 252.967 14.919 252.934 14.022 252.934 L 9.701 252.934 L 9.701 265.163 L 14.596 265.163 C 15.446 265.163 16.143 265.087 16.693 264.933 C 17.246 264.778 17.751 264.523 18.21 264.162 C 18.6 263.859 18.908 263.481 19.138 263.022 C 19.368 262.561 19.483 262.026 19.483 261.417 C 19.483 260.587 19.256 259.927 18.801 259.436 Z M 15.516 262.682 C 15.199 262.819 14.885 262.892 14.58 262.903 C 14.274 262.915 13.721 262.92 12.923 262.92 L 12.757 262.92 L 12.757 259.858 L 13.324 259.858 C 13.87 259.858 14.308 259.861 14.633 259.87 C 14.958 259.878 15.216 259.917 15.401 259.991 C 15.707 260.099 15.936 260.259 16.091 260.475 C 16.245 260.688 16.32 260.983 16.32 261.361 C 16.32 261.655 16.256 261.92 16.127 262.152 C 15.998 262.385 15.796 262.561 15.516 262.682 Z M 14.902 257.577 C 14.678 257.68 14.459 257.736 14.249 257.748 C 14.038 257.759 13.668 257.764 13.144 257.764 L 12.757 257.764 L 12.757 255.177 L 12.97 255.177 C 13.517 255.177 13.929 255.18 14.207 255.188 C 14.484 255.196 14.723 255.244 14.924 255.334 C 15.14 255.426 15.297 255.578 15.398 255.785 C 15.499 255.992 15.55 256.195 15.55 256.393 C 15.55 256.66 15.502 256.896 15.409 257.1 C 15.317 257.302 15.146 257.461 14.902 257.577 Z" class="cls-1" style="fill-rule: evenodd; fill: rgb(255, 86, 53);"/>
  <path d="M 14.115 203.228 C 6.32 203.228 0.001 196.909 0.001 189.114 C 0.001 181.319 6.32 175 14.115 175 C 21.91 175 28.229 181.319 28.229 189.114 C 28.229 196.909 21.91 203.228 14.115 203.228 Z M 21.325 183.594 C 21.325 182.727 20.623 182.025 19.756 182.025 L 8.668 182.025 C 7.801 182.025 7.099 182.727 7.099 183.594 L 7.098 194.667 C 7.098 195.534 7.801 196.236 8.667 196.236 L 19.756 196.236 C 20.623 196.236 21.325 195.534 21.325 194.667 L 21.325 183.594 Z M 19.237 186.401 L 17.56 186.401 C 17.257 186.401 17.01 186.155 17.01 185.851 L 17.01 184.174 C 17.01 183.87 17.257 183.624 17.56 183.624 L 19.237 183.624 C 19.541 183.624 19.787 183.87 19.787 184.174 L 19.787 185.851 C 19.787 186.155 19.541 186.401 19.237 186.401 Z M 14.234 191.713 C 12.824 191.713 11.682 190.57 11.682 189.16 C 11.682 187.749 12.824 186.607 14.234 186.607 C 15.645 186.607 16.992 187.636 16.992 189.159 C 16.992 190.683 15.645 191.713 14.234 191.713 Z M 14.234 193.59 C 16.678 193.59 18.66 191.608 18.66 189.164 C 18.66 188.78 18.611 188.406 18.519 188.051 C 19.313 188.052 19.76 188.05 19.76 188.05 L 19.76 194.154 C 19.76 194.457 19.514 194.704 19.21 194.704 L 9.258 194.704 C 8.954 194.704 8.708 194.457 8.708 194.154 L 8.708 188.05 C 8.708 188.05 8.959 188.051 9.949 188.051 C 9.856 188.406 9.807 188.78 9.807 189.164 C 9.807 191.608 11.789 193.59 14.234 193.59 Z" class="cls-1" style="fill-rule: evenodd; fill: rgb(255, 86, 53);"/>
  <path d="M 14.116 168.228 C 6.321 168.228 0.002 161.909 0.002 154.114 C 0.002 146.319 6.321 140 14.116 140 C 21.91 140 28.229 146.319 28.229 154.114 C 28.229 161.909 21.91 168.228 14.116 168.228 Z M 21.893 148.427 C 21.26 148.803 20.559 149.075 19.813 149.222 C 19.215 148.585 18.364 148.187 17.421 148.187 C 15.612 148.187 14.145 149.654 14.145 151.463 C 14.145 151.72 14.174 151.97 14.23 152.21 C 11.508 152.073 9.094 150.769 7.478 148.787 C 7.196 149.271 7.034 149.834 7.034 150.434 C 7.034 151.57 7.613 152.573 8.492 153.161 C 7.955 153.144 7.449 152.996 7.008 152.751 C 7.008 152.765 7.008 152.778 7.008 152.792 C 7.008 154.379 8.137 155.703 9.635 156.005 C 9.361 156.079 9.071 156.119 8.772 156.119 C 8.561 156.119 8.356 156.099 8.156 156.06 C 8.573 157.362 9.783 158.309 11.216 158.335 C 10.095 159.214 8.683 159.738 7.148 159.738 C 6.883 159.738 6.622 159.723 6.366 159.692 C 7.816 160.622 9.538 161.164 11.388 161.164 C 17.414 161.164 20.709 156.172 20.709 151.843 C 20.709 151.701 20.706 151.56 20.699 151.419 C 21.34 150.957 21.895 150.38 22.334 149.724 C 21.747 149.984 21.115 150.16 20.453 150.239 C 21.129 149.834 21.648 149.192 21.893 148.427 Z" class="cls-1" style="fill-rule: evenodd; fill: rgb(255, 86, 53);"/>
  <path d="M 14.116 238.228 C 6.321 238.228 0.002 231.909 0.002 224.114 C 0.002 216.319 6.321 210 14.116 210 C 21.911 210 28.23 216.319 28.23 224.114 C 28.23 231.909 21.911 238.228 14.116 238.228 Z M 17.632 215.459 L 15.121 215.459 C 12.158 215.459 11.449 216.849 11.449 219.364 L 11.449 221.342 L 9.75 221.342 L 9.75 224.12 L 11.449 224.12 L 11.449 232.477 L 14.812 232.477 L 14.812 224.12 L 17.278 224.12 L 17.535 221.342 L 14.812 221.342 L 14.816 219.672 C 14.816 218.868 14.892 218.543 16.046 218.543 L 17.632 218.543 L 17.632 215.459 Z" class="cls-1" style="fill-rule: evenodd; fill: rgb(255, 86, 53);"/>
</svg>
